X:54
T:Lass of Richmond Hill, The
S:John Moore's Book 2
Z:Transcribed Steve Mansfield 04/2021
%%VWML: Moore2-4494-p41-0
F:http://www.vwml.org/record/Moore2/4494/p41
M:C
L:1/8
K:D
A | Addd | {e}dc/d/ eg | fdBe | d2{ed}c A | 
Addd | {e}dc/d/ ed | cAB^G | A2zd | 
cA Ad | cA Ad | cegf | d2{ed}cA | 
Addd | {e}dc/d/ ed | cAB^G | Addf |
f3d | ceeg | Hg3e | f>edc | dB A G | FAEc | d3 |]

